X:215
T:Sitting Bull Reel  (Am)
C:Andy De Jarlis
M:2/4
L:1/16
Z:abc by Bruce Osborne - bosborne@kos.net
K:Am
ea2a abag|edeg a2e^f|gedc B2GA|BGAc B2A2|!
ea2a abag|edeg a2e^f|gedc B2AG|EAAG A4:|!
|:[A,2E2][A,E][A,E] [A,2E2]ED|EGAB c2BA|G2B2 D2GA|BGAc B2A2|!
[A,2E2][A,E][A,E] [A,2E2]ED|EGAB c2A2|efed c2Ac|BAGB A4:|!
